X:1
T:Franz Schubert (1797-1828)
T:Poem by Salis
T:Zum Rundetanz (Op. 17, No. 3)
T:TTBB a cappella 
%%score [ 1 2 3 4 ]
L:1/8
Q:1/4=120
M:6/8
K:E
V:1 treble-8 nm="Tenor I"
V:2 treble-8 nm="Tenor II"
V:3 bass nm="Bass I"
V:4 bass nm="Bass II"
V:1
!f!"^Vivace" !>!e2 B cc z | !>!c2 c dd z |!p! d2 d e2 (g/f/) | (B3{e} dc)d | !fermata!e6 | %5
w: 1.  Auf! es dun- kelt,|sil- bern fun- kelt|dort der Mond ob _|Tan- * * nen-|­ höh'n.|
w: 2. Hüpft ge- schwin- de|um die Lin- de,|die uns gel- be _|Blü- * * then|streut.|
w: 3.   Al   - so schwe- ben|wir durch's Le- ben|leicht wie Ro- sen- *|blät- * * ter|hin.|
!ff! !>!e2 c !>!e2 c | !>!e2 c !>!e2 c |!p! c2 c (cd)d | d2 d (de)c | (f>g)e d2 z | %10
w: Auf und tanzt in|fro- her Run- de,|die- se Stun- * de|däm- mert un- * be-|wölkt _ und schön,|
w: Lasst uns fro- he|Lie- der sin- gen,|Ket- ten schlin- * gen,|wo man traut _ die|Hand _ sich beut,|
w: An den Jüng- ling,|dun- kelt's bän- ger,|schliesst sich en- * ger|sei- ne trau- * te|Nach- * ba- rin,|
!mf!!<(! e2!<)! e!>(! e2!>)! (d/c/) | (cB)A (A2 G) |!<(! (eg) (f/!<)!e/)!>(! e2!>)! (d/c/) | %13
w: die- se Stun- de _|däm- * mert schön, _|däm- * mert _ un- be- *|
w: wo man traut die _|Hand _ sich beut, _|wo _ man _ traut die _|
w: schliesst sich sei- ne _|Nach- * ba- rin, _|sei- * ne _ trau- te _|
 (cB)d e2 z |!ff! !>!e2 B cc z | !>!a2 d ee !fermata!z :| %16
w: wölkt _ und schön.|Auf! es dun- kelt,|auf! es dun- kelt!|
w: Hand _ sich beut.|Hüpft ge- schwin- de|um die Lin- de!|
w: Nach- * ba- rin.|Al- so schwe- ben|wir durch's Le- ben!|
V:2
!f! !>!B2 G AA z | !>!^A2 A BB z |!p! =A2 A G2 c | (B3 A2) A | !fermata!G6 |!ff! !>!c2 A !>!c2 A | %6
w: 1.  Auf! es dun- kelt,|sil- bern fun- kelt|dort der Mond ob|Tan- * nen-|­ höh'n.|Auf und tanzt in|
w: 2. Hüpft ge- schwin- de|um die Lin- de,|die uns gel- be|Blü- * then|streut.|Lasst uns fro- he|
w: 3.   Al   - so schwe- ben|wir durch's Le- ben|leicht wie Ro- sen-|blät- * ter|hin.|An den Jüng- ling,|
 !>!c2 A !>!c2 A |!p! F2 F F2 F | G2 G G2 ^A | B2 ^A B2 z |!mf!!<(! B2!<)! ^B!>(! c2 (=B/!>)!A/) | %11
w: fro- her Run- de,|die- se Stun- de|däm- mert un- be-|wölkt und schön,|die- se Stun- de _|
w: Lie- der sin- gen,|Ket- ten schlin- gen,|wo man traut die|Hand sich beut,|wo man traut die _|
w: dun- kelt's bän- ger,|schliesst sich en- ger|sei- ne trau- te|Nach- ba- rin,|schliesst sich sei- ne _|
 (AG)F E3 |!<(! B2 ^B!<)!!>(! c2!>)! (=B/A/) | (AG)A G2 z |!ff! !>!B2 G AA z | %15
w: däm- * mert schön,|däm- mert un- be- *|wölkt _ und schön.|Auf! es dun- kelt,|
w: Hand _ sich beut,|wo man traut die _|Hand _ sich beut.|Hüpft ge- schwin- de|
w: Nach- * ba- rin,|sei- ne trau- te _|Nach- * ba- rin.|Al- so schwe- ben|
 !>!^d2 A GG !fermata!z :| %16
w: auf! es dun- kelt!|
w: um die Lin- de!|
w: wir durch's Le- ben!|
V:3
!f! !>!G,2 E, E,E, z | !>!F,2 F, F,F, z |!p! F,2 F, E,2 A, | (G,3 F,2) F, | !fermata!E,6 | %5
w: 1.  Auf! es dun- kelt,|sil- bern fun- kelt|dort der Mond ob|Tan- * nen-|­ höh'n.|
w: 2. Hüpft ge- schwin- de|um die Lin- de,|die uns gel- be|Blü- * then|streut.|
w: 3.   Al   - so schwe- ben|wir durch's Le- ben|leicht wie Ro- sen-|blät- * ter|hin.|
!ff! !>!E,2 E, !>!E,2 E, | !>!E,2 E, !>!E,2 E, |!p! E,2 E, (E,D,)D, | F,2 F, (F,E,)E, | %9
w: Auf und tanzt in|fro- her Run- de,|die- se Stun- * de|däm- mert un- * be-|
w: Lasst uns fro- he|Lie- der sin- gen,|Ket- ten schlin- * gen,|wo man traut * die|
w: An den Jüng- ling,|dun- kelt's bän- ger,|schliesst sich en- * ger|sei- ne trau- * te|
 F,2 F, F,2 z |!mf!!<(! E,2!<)! E,!>(! E,2!>)! E, | D,2 D, E,3 |!<(! E,2 E,!<)!!>(! E,2!>)! E, | %13
w: wölkt und schön,|die- se Stun- de|däm- mert schön,|däm- mert un- be-|
w: Hand sich beut,|wo man traut die|Hand sich beut,|wo man traut die|
w: Nach- ba- rin,|schliesst sich sei- ne|Nach- ba- rin,|sei- ne trau- te|
 B,,2 F, E,2 z |!ff! !>!G,2 E, E,E, z | !>!F,2 F, E,E, !fermata!z :| %16
w: wölkt und schön.|Auf! es dun- kelt,|auf! es dun- kelt!|
w: Hand sich beut.|Hüpft ge- schwin- de|um die Lin- de!|
w: Nach- ba- rin.|Al- so schwe- ben|wir durch's Le- ben!|
V:4
!f! !>!E,2 E, A,,A,, z | !>!F,2 F, B,,B,, z |!p! ^B,,2 B,, C,2 A,, | =B,,3- B,,2 B,, | %4
w: 1.  Auf! es dun- kelt,|sil- bern fun- kelt|dort der Mond ob|Tan- * nen-|
w: 2. Hüpft ge- schwin- de|um die Lin- de,|die uns gel- be|Blü- * then|
w: 3.   Al   - so schwe- ben|wir durch's Le- ben|leicht wie Ro- sen-|blät- * ter|
 !fermata!E,6 |!ff! !>!A,,2 A,, !>!A,,2 A,, | !>!A,,2 A,, !>!A,,2 A,, |!p! ^A,,2 A,, A,,B,,B,, | %8
w: ­ höh'n.|Auf und tanzt in|fro- her Run- de,|die- se Stun- * de|
w: streut.|Lasst uns fro- he|Lie- der sin- gen,|Ket- ten schlin- * gen,|
w: hin.|An den Jüng- ling,|dun- kelt's bän- ger,|schliesst sich en- * ger|
 ^B,,2 B,, (B,,C,)E, | D,2 C, B,,2 z |!mf!!<(! G,,2!<)! G,,!>(! A,,2!>)! A,, | B,,2 B,, C,3 | %12
w: däm- mert un- * be-|wölkt und schön,|die- se Stun- de|däm- mert schön,|
w: wo man traut _ die|Hand sich beut,|wo man traut die|Hand sich beut,|
w: sei- ne trau- * te|Nach- ba- rin,|schliesst sich sei- ne|Nach- ba- rin,|
!<(! G,,2!<)! G,,!>(! A,,2!>)! A,, | B,,2 B,, E,2 z |!ff! !>!E,2 E, A,,A,, z | %15
w: däm- mert un- be-|wölkt und schön.|Auf! es dun- kelt,|
w: wo man traut die|Hand sich beut.|Hüpft ge- schwin- de|
w: sei- ne trau- te|Nach- ba- rin.|Al- so schwe- ben|
 !>!B,,2 B,, E,E, !fermata!z :| %16
w: auf! es dun- kelt!|
w: um die Lin- de!|
w: wir durch's Le- ben!|

